svgs/sharp-solid/calendar-lines-pen.svg

<svg xmlns="http://www.w3.org/2000/svg" viewBox="0 0 576 512"><!--! Font Awesome Pro 6.6.0 by @fontawesome - https://fontawesome.com License - https://fontawesome.com/license (Commercial License) Copyright 2024 Fonticons, Inc. --><path d="M160 0l0 64 128 0 0-64 64 0 0 64 96 0 0 96L0 160 0 64l96 0L96 0l64 0zM0 192l448 0 0 44.4-181 181L253.4 512 0 512 0 192zm288 80L96 272l0 48 192 0 0-48zm-64 96L96 368l0 48 128 0 0-48zM505 223.8l71 71-41.3 41.3-71-71L505 223.8zm-63.9 63.9l71 71L370.9 500 288 511.9 299.9 429 441.1 287.8z"/></svg>

<svg xmlns="http://www.w3.org/2000/svg" viewBox="0 0 576 512"><!--! Font Awesome Pro 6.4.0 by @fontawesome - https://fontawesome.com License - https://fontawesome.com/license (Commercial License) Copyright 2023 Fonticons, Inc. --><path d="M160 0V64H288V0h64V64h96v96H0V64H96V0h64zM0 192H448v44.4l-181 181L253.4 512H0V192zm288 80H96v48H288V272zm-64 96H96v48H224V368zM505 223.8l71 71-41.3 41.3-71-71L505 223.8zm-63.9 63.9l71 71L370.9 500 288 511.9 299.9 429 441.1 287.8z"/></svg>
